X:750
T:William Thompson
A:Wyresdale, Lancashire
B:E and J Winder, 1835-41
L:1/8
M:2/4
O:England
Z:Richard Robinson 
%%RRN:"Bugle Solo"
%%TUNEURL: http://www.leeds.ac.uk/music/Info/RRTuneBk/gettune/00001068.html
%%ID:00001068
K:C
G | \
ce gG |  cc/>c/ cd/e/ | fd/f/ f/e/d/c/ | B/c/d/B/ G G | \
ce gG | cc/>c/c !segno!e/g/ | g/f/d/f/ f/e/G/B/ | cc/>c/c ::
e | \
f/e/f/g/ a/f/e/d/ | e/d/e/f/ g/e/d/c/ | d/c/d/e/ f/e/d/c/ | BG/>G/G G |\
ce gG | cc/>c/c !segno! e/g/ | g/f/d/f/ f/e/f/b/ | c'c'/>c'/c'
% no bar line or repeat at end, just trails off
%%newpage
%page 57
